X:919
T:Rocking the Baby
S:Celine Donague, Glasgow
Z:Nigel Gatherer
M:6/8
L:1/8
K:A
c>ee d>ee | c>ee d>cB | c>ee d>ee | A>BA c>BA |
c>ee d>ee | c>ee d>cB | A2c  B2c  | A>BA A3  :|
a>cc e>cc | a>cc d>cB | a>cc e>cc | A>BA c>BA |
a>cc e>cc | a>cc d>cB | A2c  B2c  | A>BA A3  :|
<end>
<start>
